X:128
T:A Waltz
O:No 128 Wm Clarke MS  Feltwell, Norfolk
I:abc2nwc
M:3/4
L:1/8
K:C
G2|cB cd ef|ag ^fg ec|de fd cB|dc Bc G2|
cB cd ef|ag ^fg ec|de fd cB|c2z2:|
|:eg|gf ef af|fe de ge|e2e2e2|gf ef af|
fe de ge|gf ef dB|c2z2:|
|:G2|cB cd ec|A2A2A2|B2B2B2|cd ef g2|
cB cd ec|A2A2A2|B2B2B2|c2z2:|
|:G2|Gd fd fd|Gc ec ec|Gd fd fd|cd ef g2|
Gd fd fd|Gc ec ec|GB dB dB|c4:|

